X:1
T:Primavera, 75.75 D
T:Primavera, 75.75 D
T:James McGranahan, 1899
T:Public Domain Courtesy of the Cyber Hymnal™
C:James McGranahan, 1899
Z:Public Domain
Z:Courtesy of the Cyber Hymnal™
%%score ( 1 2 ) ( 3 4 )
L:1/8
Q:1/4=106
M:2/2
K:G
V:1 treble 
V:2 treble 
V:3 bass 
V:4 bass 
V:1
 [DG]3 [DG] [EG]2 [EG]2 | [EG]2 [EG]2 [DG]4 | [DA]3 [DA] [FA]2 [Fd]2 | [GB]8 | %4
 [DB]3 [DB] [^DB]2 [DB]2 | [EB]2 [EB]2 [^DB]4 | [E^c]3 [Ec] [Gc]2 [Ge]2 | [Fd]8 | %8
 [Fd]2 [Fc]2 [FB]2 [FA]2 | [EG]2 [^DF]2 E4 | [Ec]2 [EB]2 [EA]2 [EG]2 | (G4 F4) x2 | %12
 [^DA]3 [DA] [E^G]2 [EG]2 | [EA]2 [EB]2 (c2 e2) | [Fe]3 [Fd] [Fd]2 [DF]2 | [DG]8 |] %16
V:2
 x8 | x8 | x8 | x8 | x8 | x8 | x8 | x8 | x8 | x4 E4 | x8 | D8 x2 | x8 | x4 E4 | x8 | x8 |] %16
V:3
 [G,B,]3 [G,B,] [E,B,]2 [E,B,]2 | [C,C]2 [C,C]2 [G,,B,]4 | [D,F,]3 [F,A,] [A,D]2 [D,D]2 | [G,D]8 | %4
 G,3 G, [F,A,]2 [F,A,]2 | [E,G,]2 [E,G,]2 [B,,F,]4 | [A,,A,]3 [A,,A,] [A,,A,]2 [A,,A,]2 | [D,A,]8 | %8
 [D,A,]2 [D,A,]2 [^D,B,]2 [D,C]2 | [E,B,]2 [B,,A,]2 [C,G,]4 | %10
 [A,,A,]2 [B,,^G,]2 [C,A,]2 [^C,^A,]2 | (B,4 z2 =C,2) x2 | [B,,F,]3 [B,,B,] [E,B,]2 [D,B,]2 | %13
 [C,A,]2 [B,,^G,]2 (A,2 C2) | [D,C]3 [D,C] [D,C]2 [D,C]2 | [G,,G,B,]8 |] %16
V:4
 x8 | x8 | x8 | x8 | G,3 G, x4 | x8 | x8 | x8 | x8 | x8 | x8 | D,6 A,4 | x8 | x4 A,,4 | x8 | x8 |] %16

